Newaita-dark/.DP/48/indicator-keyboard-Ko.svg

<svg xmlns="http://www.w3.org/2000/svg" xmlns:xlink="http://www.w3.org/1999/xlink" width="48px" height="48px" viewBox="0 0 48 48" version="1.1">
<g id="surface1">
<path style="fill:none;stroke-width:2.995632;stroke-linecap:round;stroke-linejoin:round;stroke:rgb(93.333334%,93.333334%,93.333334%);stroke-opacity:1;stroke-miterlimit:4;" d="M 7.9375 24.191406 C 13.890625 24.191406 20.335938 24.191406 19.84375 12.28125 M 7.9375 12.28125 L 7.9375 37.089844 M 7.9375 24.191406 L 19.84375 37.089844 M 27.785156 30.144531 L 27.785156 18.234375 C 27.785156 12.28125 33.738281 12.28125 33.738281 12.28125 C 33.738281 12.28125 39.691406 12.28125 39.691406 18.234375 L 39.691406 30.144531 C 39.691406 37.089844 33.738281 37.089844 33.738281 37.089844 C 33.738281 37.089844 27.785156 37.089844 27.785156 30.144531 Z M 27.785156 30.144531 "/>
</g>
</svg>

<svg xmlns="http://www.w3.org/2000/svg" width="64" height="64" viewBox="0 0 48 48"><g fill="none" stroke-width="31.95" stroke-linecap="round" stroke-linejoin="round" stroke="#bdbdbd"><path d="M7.938 24.191c5.953 0 12.398 0 11.906-11.91m-11.906 0V37.09M7.938 24.191L19.844 37.09M27.785 30.145v-11.91c0-5.954 5.953-5.954 5.953-5.954s5.953 0 5.953 5.953v11.91c0 6.946-5.953 6.946-5.953 6.946s-5.953 0-5.953-6.945zm0 0" stroke-width="2.9956319999999996"/></g></svg>
